static/cards/FrenchDeck/cyberwave/card_hearts_09.svg

<svg xmlns="http://www.w3.org/2000/svg" width="822" height="1122" fill="none" viewBox="0 0 822 1122"><rect width="822" height="1122" fill="#1a0033" rx="20"/><g fill="#b366ff" clip-path="url(#a)"><path d="M118.254 160.92q-7.169 0-13.056-1.536-5.76-1.536-9.728-4.224-.767-.512-.896-.896-.128-.384.256-1.152l1.664-2.816q.384-.768.896-.768.256 0 .896.384 8.064 5.12 20.096 5.12 12.416 0 19.968-8.96 7.68-9.088 8.704-25.472-9.984 12.16-26.752 12.16-9.473 0-16.896-3.456-7.296-3.584-11.52-10.112-4.096-6.656-4.096-15.872 0-16.384 9.344-24.832t25.472-8.448q14.592 0 23.04 9.472 8.576 9.344 8.576 29.568 0 28.416-10.496 40.192-10.496 11.648-25.472 11.648m3.2-34.176q6.016 0 12.032-2.56 6.016-2.688 9.856-7.68 3.968-5.12 3.968-12.288 0-14.08-6.528-21.12-6.528-7.168-18.176-7.168-28.16 0-28.16 27.392 0 11.52 7.04 17.536 7.04 5.888 19.968 5.888M120.798 218.497c-10.18-10.18-26.685-10.18-36.865 0s-10.18 26.685 0 36.865l33.179 33.179a5.213 5.213 0 0 0 7.373 0l33.179-33.179-.004-.003c9.814-10.207 9.692-26.436-.365-36.493s-26.287-10.179-36.493-.365zM695.746 957.08q7.168 0 13.056 1.536 5.76 1.536 9.728 4.224.768.512.896.896t-.256 1.152l-1.664 2.816q-.384.768-.896.768-.256 0-.896-.384-8.064-5.12-20.096-5.12-12.415 0-19.968 8.96-7.68 9.088-8.704 25.472 9.984-12.16 26.752-12.16 9.473 0 16.896 3.456 7.296 3.584 11.52 10.112 4.096 6.663 4.096 15.872c0 10.92-3.115 19.2-9.344 24.83s-14.72 8.45-25.472 8.45c-9.728 0-17.408-3.16-23.04-9.47-5.717-6.23-8.576-16.09-8.576-29.57q0-28.416 10.496-40.192 10.496-11.648 25.472-11.648m-3.2 34.176q-6.016 0-12.032 2.56-6.016 2.687-9.856 7.684c-2.645 3.41-3.968 7.51-3.968 12.28q0 14.085 6.528 21.12 6.528 7.17 18.176 7.17 28.16 0 28.16-27.39c0-7.68-2.347-13.53-7.04-17.536q-7.04-5.888-19.968-5.888M693.202 899.503c10.18 10.18 26.685 10.18 36.865 0s10.18-26.685 0-36.865l-33.179-33.179a5.213 5.213 0 0 0-7.373 0l-33.179 33.179.004.003c-9.814 10.207-9.692 26.436.365 36.493s26.287 10.179 36.493.365z"/></g><path stroke="#b366ff" stroke-width="8" d="M377.261 545.326c8.618-8.618 22.59-8.619 31.209-.001l2.777 2.777 2.827-2.718c8.639-8.306 22.379-8.203 30.892.31 8.514 8.514 8.617 22.254.31 30.893l-.137.143-32.983 32.982a1.213 1.213 0 0 1-1.716.001l-33.179-33.179c-8.618-8.618-8.618-22.59 0-31.208ZM209.261 707.326c8.618-8.618 22.59-8.619 31.209-.001l2.777 2.777 2.827-2.718c8.639-8.306 22.379-8.203 30.892.31 8.514 8.514 8.617 22.254.31 30.893l-.137.143-32.983 32.982a1.213 1.213 0 0 1-1.716.001l-33.179-33.179c-8.618-8.618-8.618-22.59 0-31.208ZM373.261 707.326c8.618-8.618 22.59-8.619 31.209-.001l2.777 2.777 2.827-2.718c8.639-8.306 22.379-8.203 30.892.31 8.514 8.514 8.617 22.254.31 30.893l-.137.143-32.983 32.982a1.213 1.213 0 0 1-1.716.001l-33.179-33.179c-8.618-8.618-8.618-22.59 0-31.208ZM545.261 707.326c8.618-8.618 22.59-8.619 31.209-.001l2.777 2.777 2.827-2.718c8.639-8.306 22.379-8.203 30.892.31 8.514 8.514 8.617 22.254.31 30.893l-.137.143-32.983 32.982a1.213 1.213 0 0 1-1.716.001l-33.179-33.179c-8.618-8.618-8.618-22.59 0-31.208ZM545.261 545.326c8.618-8.618 22.59-8.619 31.209-.001l2.777 2.777 2.827-2.718c8.639-8.306 22.379-8.203 30.892.31 8.514 8.514 8.617 22.254.31 30.893l-.137.143-32.983 32.982a1.213 1.213 0 0 1-1.716.001l-33.179-33.179c-8.618-8.618-8.618-22.59 0-31.208ZM209.261 545.326c8.618-8.618 22.59-8.619 31.209-.001l2.777 2.777 2.827-2.718c8.639-8.306 22.379-8.203 30.892.31 8.514 8.514 8.617 22.254.31 30.893l-.137.143-32.983 32.982a1.213 1.213 0 0 1-1.716.001l-33.179-33.179c-8.618-8.618-8.618-22.59 0-31.208ZM545.261 383.326c8.618-8.618 22.59-8.619 31.209-.001l2.777 2.777 2.827-2.718c8.639-8.306 22.379-8.203 30.892.31 8.514 8.514 8.617 22.254.31 30.893l-.137.143-32.983 32.982a1.213 1.213 0 0 1-1.716.001l-33.179-33.179c-8.618-8.618-8.618-22.59 0-31.208ZM209.261 383.326c8.618-8.618 22.59-8.619 31.209-.001l2.777 2.777 2.827-2.718c8.639-8.306 22.379-8.203 30.892.31 8.514 8.514 8.617 22.254.31 30.893l-.137.143-32.983 32.982a1.213 1.213 0 0 1-1.716.001l-33.179-33.179c-8.618-8.618-8.618-22.59 0-31.208ZM377.261 383.326c8.618-8.618 22.59-8.619 31.209-.001l2.777 2.777 2.827-2.718c8.639-8.306 22.379-8.203 30.892.31 8.514 8.514 8.617 22.254.31 30.893l-.137.143-32.983 32.982a1.213 1.213 0 0 1-1.716.001l-33.179-33.179c-8.618-8.618-8.618-22.59 0-31.208Z"/><defs><clipPath id="a"><path fill="#fff" d="M46 48h722v1022H46z"/></clipPath></defs></svg>

<svg width="822" height="1122" viewBox="0 0 822 1122" fill="none" xmlns="http://www.w3.org/2000/svg">
<rect width="822" height="1122" rx="20" fill="#1A0033"/>
<g clip-path="url(#clip0_31_1818)">
<path d="M118.254 160.92C113.475 160.92 109.123 160.408 105.198 159.384C101.358 158.36 98.1153 156.952 95.47 155.16C94.958 154.819 94.6593 154.52 94.574 154.264C94.4887 154.008 94.574 153.624 94.83 153.112L96.494 150.296C96.75 149.784 97.0487 149.528 97.39 149.528C97.5607 149.528 97.8593 149.656 98.286 149.912C103.662 153.325 110.361 155.032 118.382 155.032C126.659 155.032 133.315 152.045 138.35 146.072C143.47 140.013 146.371 131.523 147.054 120.6C140.398 128.707 131.481 132.76 120.302 132.76C113.987 132.76 108.355 131.608 103.406 129.304C98.542 126.915 94.702 123.544 91.886 119.192C89.1553 114.755 87.79 109.464 87.79 103.32C87.79 92.3973 90.9047 84.12 97.134 78.488C103.363 72.856 111.854 70.04 122.606 70.04C132.334 70.04 140.014 73.1973 145.646 79.512C151.363 85.7413 154.222 95.5973 154.222 109.08C154.222 128.024 150.723 141.421 143.726 149.272C136.729 157.037 128.238 160.92 118.254 160.92ZM121.454 126.744C125.465 126.744 129.475 125.891 133.486 124.184C137.497 122.392 140.782 119.832 143.342 116.504C145.987 113.091 147.31 108.995 147.31 104.216C147.31 94.8293 145.134 87.7893 140.782 83.096C136.43 78.3173 130.371 75.928 122.606 75.928C103.833 75.928 94.446 85.0587 94.446 103.32C94.446 111 96.7927 116.845 101.486 120.856C106.179 124.781 112.835 126.744 121.454 126.744Z" fill="#B366FF"/>
<path d="M120.798 218.497C110.618 208.317 94.1128 208.317 83.9327 218.497C73.7526 228.677 73.7526 245.182 83.9327 255.362L117.112 288.541C119.148 290.577 122.449 290.577 124.485 288.541L157.664 255.362L157.66 255.359C167.474 245.152 167.352 228.923 157.295 218.866C147.238 208.809 131.008 208.687 120.802 218.501L120.798 218.497Z" fill="#B366FF"/>
<path d="M695.746 957.08C700.525 957.08 704.877 957.592 708.802 958.616C712.642 959.64 715.885 961.048 718.53 962.84C719.042 963.181 719.341 963.48 719.426 963.736C719.511 963.992 719.426 964.376 719.17 964.888L717.506 967.704C717.25 968.216 716.951 968.472 716.61 968.472C716.439 968.472 716.141 968.344 715.714 968.088C710.338 964.675 703.639 962.968 695.618 962.968C687.341 962.968 680.685 965.955 675.65 971.928C670.53 977.987 667.629 986.477 666.946 997.4C673.602 989.293 682.519 985.24 693.698 985.24C700.013 985.24 705.645 986.392 710.594 988.696C715.458 991.085 719.298 994.456 722.114 998.808C724.845 1003.25 726.21 1008.54 726.21 1014.68C726.21 1025.6 723.095 1033.88 716.866 1039.51C710.637 1045.14 702.146 1047.96 691.394 1047.96C681.666 1047.96 673.986 1044.8 668.354 1038.49C662.637 1032.26 659.778 1022.4 659.778 1008.92C659.778 989.976 663.277 976.579 670.274 968.728C677.271 960.963 685.762 957.08 695.746 957.08ZM692.546 991.256C688.535 991.256 684.525 992.109 680.514 993.816C676.503 995.608 673.218 998.168 670.658 1001.5C668.013 1004.91 666.69 1009.01 666.69 1013.78C666.69 1023.17 668.866 1030.21 673.218 1034.9C677.57 1039.68 683.629 1042.07 691.394 1042.07C710.167 1042.07 719.554 1032.94 719.554 1014.68C719.554 1007 717.207 1001.15 712.514 997.144C707.821 993.219 701.165 991.256 692.546 991.256Z" fill="#B366FF"/>
<path d="M693.202 899.503C703.382 909.683 719.887 909.683 730.067 899.503C740.247 889.323 740.247 872.818 730.067 862.638L696.888 829.459C694.852 827.423 691.551 827.423 689.515 829.459L656.336 862.638L656.34 862.641C646.526 872.848 646.648 889.077 656.705 899.134C666.762 909.191 682.992 909.313 693.198 899.499L693.202 899.503Z" fill="#B366FF"/>
</g>
<path d="M377.261 545.326C385.879 536.708 399.851 536.707 408.47 545.325L411.247 548.102L414.074 545.384C422.713 537.078 436.453 537.181 444.966 545.694C453.48 554.208 453.583 567.948 445.276 576.587L445.139 576.73L412.156 609.712C411.682 610.186 410.914 610.187 410.44 609.713L377.261 576.534C368.643 567.916 368.643 553.944 377.261 545.326Z" stroke="#B366FF" stroke-width="8"/>
<path d="M209.261 707.326C217.879 698.708 231.851 698.707 240.47 707.325L243.247 710.102L246.074 707.384C254.713 699.078 268.453 699.181 276.966 707.694C285.48 716.208 285.583 729.948 277.276 738.587L277.139 738.73L244.156 771.712C243.682 772.186 242.914 772.187 242.44 771.713L209.261 738.534C200.643 729.916 200.643 715.944 209.261 707.326Z" stroke="#B366FF" stroke-width="8"/>
<path d="M373.261 707.326C381.879 698.708 395.851 698.707 404.47 707.325L407.247 710.102L410.074 707.384C418.713 699.078 432.453 699.181 440.966 707.694C449.48 716.208 449.583 729.948 441.276 738.587L441.139 738.73L408.156 771.712C407.682 772.186 406.914 772.187 406.44 771.713L373.261 738.534C364.643 729.916 364.643 715.944 373.261 707.326Z" stroke="#B366FF" stroke-width="8"/>
<path d="M545.261 707.326C553.879 698.708 567.851 698.707 576.47 707.325L579.247 710.102L582.074 707.384C590.713 699.078 604.453 699.181 612.966 707.694C621.48 716.208 621.583 729.948 613.276 738.587L613.139 738.73L580.156 771.712C579.682 772.186 578.914 772.187 578.44 771.713L545.261 738.534C536.643 729.916 536.643 715.944 545.261 707.326Z" stroke="#B366FF" stroke-width="8"/>
<path d="M545.261 545.326C553.879 536.708 567.851 536.707 576.47 545.325L579.247 548.102L582.074 545.384C590.713 537.078 604.453 537.181 612.966 545.694C621.48 554.208 621.583 567.948 613.276 576.587L613.139 576.73L580.156 609.712C579.682 610.186 578.914 610.187 578.44 609.713L545.261 576.534C536.643 567.916 536.643 553.944 545.261 545.326Z" stroke="#B366FF" stroke-width="8"/>
<path d="M209.261 545.326C217.879 536.708 231.851 536.707 240.47 545.325L243.247 548.102L246.074 545.384C254.713 537.078 268.453 537.181 276.966 545.694C285.48 554.208 285.583 567.948 277.276 576.587L277.139 576.73L244.156 609.712C243.682 610.186 242.914 610.187 242.44 609.713L209.261 576.534C200.643 567.916 200.643 553.944 209.261 545.326Z" stroke="#B366FF" stroke-width="8"/>
<path d="M545.261 383.326C553.879 374.708 567.851 374.707 576.47 383.325L579.247 386.102L582.074 383.384C590.713 375.078 604.453 375.181 612.966 383.694C621.48 392.208 621.583 405.948 613.276 414.587L613.139 414.73L580.156 447.712C579.682 448.186 578.914 448.187 578.44 447.713L545.261 414.534C536.643 405.916 536.643 391.944 545.261 383.326Z" stroke="#B366FF" stroke-width="8"/>
<path d="M209.261 383.326C217.879 374.708 231.851 374.707 240.47 383.325L243.247 386.102L246.074 383.384C254.713 375.078 268.453 375.181 276.966 383.694C285.48 392.208 285.583 405.948 277.276 414.587L277.139 414.73L244.156 447.712C243.682 448.186 242.914 448.187 242.44 447.713L209.261 414.534C200.643 405.916 200.643 391.944 209.261 383.326Z" stroke="#B366FF" stroke-width="8"/>
<path d="M377.261 383.326C385.879 374.708 399.851 374.707 408.47 383.325L411.247 386.102L414.074 383.384C422.713 375.078 436.453 375.181 444.966 383.694C453.48 392.208 453.583 405.948 445.276 414.587L445.139 414.73L412.156 447.712C411.682 448.186 410.914 448.187 410.44 447.713L377.261 414.534C368.643 405.916 368.643 391.944 377.261 383.326Z" stroke="#B366FF" stroke-width="8"/>
<defs>
<clipPath id="clip0_31_1818">
<rect width="722" height="1022" fill="white" transform="translate(46 48)"/>
</clipPath>
</defs>
</svg>
